resources/svg/arrow-down-small-o.svg

<svg xmlns="http://www.w3.org/2000/svg" viewBox="0 0 15 15" fill="none"><path d="M9.85355 8.85355L10.2071 8.5L9.5 7.79289L9.14645 8.14645L9.85355 8.85355ZM7.5 10.5L7.14645 10.8536L7.5 11.2071L7.85355 10.8536L7.5 10.5ZM5.85355 8.14645L5.5 7.79289L4.79289 8.5L5.14645 8.85355L5.85355 8.14645ZM9.14645 8.14645L7.14645 10.1464L7.85355 10.8536L9.85355 8.85355L9.14645 8.14645ZM7.85355 10.1464L5.85355 8.14645L5.14645 8.85355L7.14645 10.8536L7.85355 10.1464ZM8 10.5L8 4L7 4L7 10.5H8Z" fill="black"/></svg>

<svg xmlns="http://www.w3.org/2000/svg" viewBox="0 0 15 15" fill="none"><path d="M9.854 8.854l.353-.354-.707-.707-.354.353.708.708zM7.5 10.5l-.354.354.354.353.354-.353L7.5 10.5zM5.854 8.146L5.5 7.793l-.707.707.353.354.708-.708zm3.292 0l-2 2 .708.708 2-2-.708-.708zm-1.292 2l-2-2-.708.708 2 2 .708-.708zM8 10.5V4H7v6.5h1z" fill="currentColor"/></svg>
